!!!SOCIAL_FUNCTION:	songs of the buffalo hunt
!!!PDT:	1918

Specific Region: Dakotas, Minnesota, Montana, Nebraska
!!!REG: Dakotas and Montana
!!!LING_GROUP: Siouan
!!!LANG: Tone
!!!OTL@ENG: Song of the Buffalo Hunt (b)
!!!ONM: No. 181
**kern
*Imale
*clefF4
*k[f#c#g#d#]
*M3/4
*MM80
2f#
4f#
=1||
*M2/4
12e
12c#
12c#
8c#
8c#
=2
4c#
16f#
8.f#
=3
12e
12c#
12c#
8c#
8c#
=4
2c#
=5
4c#
4B
=6
8B
8B
8c#
8B
=7
8G#
8c#
8c#
8B
=8
8G#
8c#
8c#
8B
=9
2B
==
*-
!!!CNT: Native American -- Sioux
!!!MRD: 1911/07//-1914///
!!!OCL: Frances Densmore
!!!YOR1: Teton Sioux Music, Bulletin 61,
!!!YOR2: Bureau of American Ethnology, Smithsonian Institution
!!!PPR: Government Printing Office
!!!PPP: Washington, D.C.
!!!PDT: 1918///
!!!ENC: Craig Stuart Sapp
!!!END: 2002/03/25/
!!!EEV: 2002/03/31/
!!!AGN: Buffalo Hunt Song
!!!MPN@@SIO: Shiya'ka
!!!MPN@ENG: Teal Duck
!!!TXO: Teton Sioux
!!!MLC: Standing Rock Reservation, South Dakota, United States of America
!!!ARL: 45.9/-100.7#
!!!catalog: Catalogue No. 476
!!!PPG: 441
!!!EFL: 186/245
!!!VTS: 2764980924
